X: 42637
T: Whiskey Before Breakfast
R: reel
M: 4/4
K: Dmajor
|"D"DEFG A2 D2|ABAG FDEF|"G"GBAG "D"FAGF|"A"EFED E2 E2|
"D"DEFG A2 D2|ABAG FDEF|"G"GBAG "D"FAGF|1 "A"EDEE "D"D2 z2:|2 "A"EDEE "D"D2 AB||
"D"d2 dd dBAB|dBAF ED Ad|"Em"e2 ee e2 z f|gfed "A"cABc|
"D"dfed "A"cedc|"G"BcdB "D"AFED|"G"GBAG "D"FAGF|1 "A"EDEE "D"D2 AB:|2 "A"EDEE "D"D2 z2||

